!!!COM: Haydn, Franz Joseph
!!!OTL: String Quartet in E-flat Major
!!!OPS: Opus 71
!!!ONM: No. 3
!!!OMD: Finale: Vivace
!!!OMV: 4
!!!SCT: H III:71
!!!SCA: Thematisch-bibliographisches Werkevererzeichnis (A. van Hoboken)
!!!YOR: Trautwein Edition
!!!ENC: Frances Bennion
!!!CDT: 1732/3/31/-1809/5/31/
!!!CNT: Oesterreich
!!!YEC: Copyright (c) 1994, 2000 Center for Computer Assisted Research in the Humanities
!!!YEM: Rights to all derivative editions reserved.
!!!YEM: Refer to licensing agreement for further details.
!!!YEN: United States of America
**kern	**kern	**kern	**kern
*k[b-e-a-]	*k[b-e-a-]	*k[b-e-a-]	*k[b-e-a-]
*E-:	*E-:	*E-:	*E-:
*clefF4	*clefC3	*clefF	*clefF
*M6/8	*M6/8	*M6/8	*M6/8
2r	2r	2r	2r
8r	8r	8r	8r
8r	8r	8r	8a-
=1	=1	=1	=1
4EE-	8r	8r	4g
.	8G	8e- 8G	.
8r	8G	8G 8e-	8e-
4BB-	8r	8r	8d
.	8F	8A- 8d	8r
8r	8F	8d 8A-	8a-
=2	=2	=2	=2
4EE-	8r	8r	4g
.	8G	8e- 8G	.
8r	8G	8G 8e-	8e-
4BB-	8r	8r	8d
.	8F	8d 8A-	8r
8r	8F	8A- 8d	8b-
=3	=3	=3	=3
8r	8r	8r	8ee-
8c	8c	8e-	8a-
8B-	8B-	8d	8g
8r	8r	8r	8cc
8A-	8A-	8c	8f
8G	8G	8B-	8e-
=4	=4	=4	=4
8F	8F	8A-	8d
8D	8B-	8f	8a-
8E-	8B-	8e-	8g
8BB-	8B-	8d	8f
8r	8r	8r	8r
8DD	8B-	8f	8a-
=5	=5	=5	=5
8EE-	4B-	4e-	4g
8GG	.	.	.
8C	8E-	8A	8e-
8BB-	8F	8B-	8d
8r	8r	8r	8r
8DD	8B-	8f	8a-
=6	=6	=6	=6
8EE-	4B-	4e-	4g
8GG	.	.	.
8C	8E-	8A	8e-
8BB-	8F	8B-	8d
8r	4r	8r	8r
[8B-	.	8d	8b-
=7	=7	=7	=7
8B-]	4r	4e-	4cc
8A	.	.	.
4A-	8B-	8f	8dd
.	4e-	4.B-	4ee-
8G	.	.	.
8F	8f	.	8dd
=8	=8	=8	=8
8E-	8g	8c	8cc
8F	8f	8d	8b-
8F	8c	8e-	8a
4BB-	4d	4d	4b-
8d	8f	8b-	8bb-
=9	=9	=9	=9
2e-	2g-	8cc-	8ccc-
.	.	8b-	8bb-
.	.	8a	8aa
.	.	4b-	4bb-
8d	8f	.	.
8B	8d	8g	8gg
=10	=10	=10	=10
2c	2e-	8a-	8aa-
.	.	8g	8gg
.	.	8f#	8ff#
.	.	4g	4gg
8B	8d	.	.
8G	8B	8f	8ff
=11	=11	=11	=11
8A-	8c	4.e-	2ee-
8B-	8d-	.	.
8A-	8c	.	.
4.G	4.B-	4.d-	.
.	.	.	8ff
.	.	.	8ee-
=12	=12	=12	=12
8A-	8A-	8c	4.ee-
8B-	8B-	8d-	.
8A-	8A-	8c	.
8G	4.B-	4.d-	4.ee
8A-	.	.	.
8G	.	.	.
=13	=13	=13	=13
8A-	8A-	8c	8ff
8F	8f	8a-	8aa-
8E	8e	8g	8gg
8G	8g	8b-	8bb-
8F	8f	8a-	8aa-
8A-	8a-	8cc	8ccc
=14	=14	=14	=14
4.B-	4g	8b-	4.ee-
.	.	8cc	.
.	8g-	8a	.
8BB-	4f	4b-	4dd
8B-	.	.	.
8B-	8d	8f	8b-
=15	=15	=15	=15
[2B-	4.e-	4.g-	8cc-
.	.	.	8b-
.	.	.	8a
.	4d	4f	4b-
8B-]	.	.	.
8BB-	8B-	8B-	8B-
=16	=16	=16	=16
8C-	8c-	8c-	8c-
8BB-	8B-	8B-	8B-
8AA	8A	8A	8A
8BB-	4B-	4B-	4B-
8B-	.	.	.
8B-	8d	8f	8b-
=17	=17	=17	=17
[2B-	4.e-	4.g-	8cc-
.	.	.	8ee-
.	.	.	8a
.	4d	4f	4b-
8B-]	.	.	.
8F	8f	8f	8f
=18	=18	=18	=18
8G-	8g-	8g-	8g-
8E-	8e-	8e-	8e-
8AA	8A	8A	8A
4BB-	4B-	4B-	4B-
8r	8a-	8r	[8b-
=19	=19	=19	=19
2.r	4g	2.r	8b-]
.	.	.	8ee-
.	8e-	.	4gg
.	8d	.	.
.	8r	.	8ff
.	8a-	.	[8b-
=20	=20	=20	=20
2.r	4g	2.r	8b-]
.	.	.	8ee-
.	8e-	.	4gg
.	4d	.	.
.	.	.	8ff
.	8cc	.	[8aa-
=21	=21	=21	=21
2.r	4b-	2r	8aa-]
.	.	.	8gg
.	8a-	.	4ccc
.	4g	.	.
.	.	8r	8bb-
.	8a-	[8ff	[8aa-
=22	=22	=22	=22
2r	4b-	8ff]	8aa-]
.	.	8ee-	8gg
.	8B-	4dd	4ff
.	4e-	.	.
8r	.	8ee-	8gg
8AA-	8A-	[8B-	[8b-
=23	=23	=23	=23
4GG	4G	8B-]	8b-]
.	.	8e-	8ee-
8EE-	8E-	4g	4gg
8DD	8D	.	.
8r	8r	8f	8ff
8AA-	8A-	[8B-	[8b-
=24	=24	=24	=24
4GG	4G	8B-]	8b-]
.	.	8e-	8ee-
8EE-	8E-	4g	4gg
4DD	4D	.	.
.	.	8f	8ff
8C	8c	[8a-	[8aa-
=25	=25	=25	=25
4BB-	4B-	8a-]	8aa-]
.	.	8g	8gg
8AA-	8A-	4cc	4ccc
4GG	4G	.	.
.	.	8b-	8bb-
8g	8b-	[8ee-	[8eee-
=26	=26	=26	=26
4f	4a-	8ee-]	8eee-]
.	.	8dd	8ddd
8e-	8g	4cc	4ccc
4d	4f	.	.
.	.	8b-	8bb-
8c	8e-	8a	8aa
=27	=27	=27	=27
4.d	4.f	4b-	4bb-
.	.	8b	8bb
4.r	4.r	4cc	4ccc
.	.	8r	8r
=28	=28	=28	=28
2r	2r	2r	2r
8r	8r	8r	8r
8D	[8b-	[8ff	[8aa-
=29	=29	=29	=29
4E-	8b-]	8ff]	8aa-]
.	8B-	8ee-	8gg
8A-	4cc	4ee-	4ff
4B-	.	.	.
.	8b-	8g	8ee-
8BB-	16a-	8f	8dd
.	16f	.	.
=30	=30	=30	=30
4.E-	4.d	4.a-	4.ff
8EE-	8e-	8g	8ee-
4r	4r	4r	4r
=31	=31	=31	=31
4.E-	4.d	4.a-	4.ff
8EE-	8e-	8g	8ee-
4r	4r	8r	16r
.	.	.	16b-
.	.	8a-	16cc
.	.	.	16dd
=32	=32	=32	=32
2.r	2.r	4g	16ee-
.	.	.	16dd
.	.	.	16ee-
.	.	.	16ff
.	.	8e-	16gg
.	.	.	16aa-
.	.	8d	16bb-
.	.	.	16ccc
.	.	8r	16bb-
.	.	.	16aa-
.	.	8a-	16gg
.	.	.	16ff
=33	=33	=33	=33
2.r	2.r	4g	16ee-
.	.	.	16dd
.	.	.	16ee-
.	.	.	16ff
.	.	8e-	16gg
.	.	.	16aa-
.	.	4d	16bb-
.	.	.	16ccc
.	.	.	16bb-
.	.	.	16aa-
.	.	8a-	16gg
.	.	.	16ff
=34	=34	=34	=34
2.r	2r	4g	16ee-
.	.	.	16ff
.	.	.	16gg
.	.	.	16ff
.	.	8f	16ee-
.	.	.	16dd
.	.	16e-	16cc
.	.	16d	16b-
.	16r	16c	16a
.	16F	16e-	16gg
.	16G	16d	16ff
.	16A	16c	16ee-
=35	=35	=35	=35
2.r	16B-	4B-	4dd
.	16A	.	.
.	16B-	.	.
.	16c	.	.
.	16d	4.r	8b-
.	16e-	.	.
.	16f	.	8a
.	16g	.	.
.	16f	.	8r
.	16e-	.	.
.	16d	8aa	8ee-
.	16c	.	.
=36	=36	=36	=36
2.r	16B-	8bb-	4dd
.	16A	.	.
.	16B-	8ff	.
.	16c	.	.
.	16d	16ee-	8b-
.	16e-	16dd	.
.	16f	4cc	4a
.	16g	.	.
.	16f	.	.
.	16e-	.	.
.	16d	8a	8ee-
.	16c	.	.
=37	=37	=37	=37
2r	16B-	4.b-	16dd
.	16c	.	16ee-
.	16d	.	16ff
.	16c	.	16ee-
.	16d	.	16ff
.	16e-	.	16gg
.	4.f	8.d	16aa-
.	.	.	16ff
8r	.	.	16ee-
.	.	16B-	16dd
8A-	.	16c	16ee-
.	.	16d	16ff
=38	=38	=38	=38
4G	4g	16e-	4b-
.	.	16d	.
.	.	16e-	.
.	.	16f	.
8E-	8G	16g	2r
.	.	16a-	.
8D	4F	16b-	.
.	.	16cc	.
8r	.	16b-	.
.	.	16a-	.
8A-	8dd	16g	.
.	.	16f	.
=39	=39	=39	=39
4G	8ee-	16e-	2.r
.	.	16d	.
.	8b-	16e-	.
.	.	16f	.
8E-	16a-	16g	.
.	16g	16a-	.
4D	4f	16b-	.
.	.	16cc	.
.	.	16b-	.
.	.	16a-	.
8D-	8B-	16g	.
.	.	16f	.
=40	=40	=40	=40
2C	16b-	16e	2r
.	16a-	16f	.
.	16g	16g	.
.	16f	16f	.
.	16e	16g	.
.	16f	16a-	.
.	8.e	16b-	.
.	.	16a-	.
16r	.	16g	8r
16CC	16e	16dd-	.
16DD	16f	16cc	8bb-
16EE	16g	16g	.
=41	=41	=41	=41
16FF	8c	4a-	4aa-
16EE	.	.	.
16FF	8r	.	.
16GG	.	.	.
16AA-	8cc	8a-	8ff
16BB-	.	.	.
16C	8c	8g	8ee
16D-	.	.	.
16C	16e	8r	8r
16BB-	16g	.	.
16AA-	[8cc	8ee	8bb-
16GG	.	.	.
=42	=42	=42	=42
16FF	8cc]	4ff	4aa-
16EE	.	.	.
16FF	8c	.	.
16GG	.	.	.
16AA-	4cc	8a-	8ff
16BB-	.	.	.
16C	.	4g	4ee
16D-	.	.	.
16C	8c	.	.
16BB-	.	.	.
16AA-	[8cc	8ee	8bb-
16GG	.	.	.
=43	=43	=43	=43
4.FF	8cc]	8ff	16aa-
.	.	.	16bb-
.	8f	16cc	16aa-
.	.	16b-	16gg
.	8g	16a-	16ff
.	.	16g	16ee-
4.F	4.a-	16f	16dd
.	.	16g	16ee-
.	.	16a-	16ff
.	.	16g	16ee-
.	.	16f	16dd
.	.	16e-	16cc
=44	=44	=44	=44
2.G	4g	16d	16b
.	.	16e-	16cc
.	.	16f	16dd
.	.	16e-	16cc
.	4r	16d	16b
.	.	16c	16a-
.	.	4B	16g
.	.	.	16a-
.	16r	.	16g
.	16G	.	16f
.	16A	8ff	16e-
.	16B	.	16d
=45	=45	=45	=45
4C	16c	4ee-	4e-
.	16B	.	.
.	16c	.	.
.	16d	.	.
8AA-	16e-	8cc	2r
.	16f	.	.
4GG	16g	4b	.
.	16a-	.	.
.	16g	.	.
.	16f	.	.
8BB	16e-	8ff	.
.	16d	.	.
=46	=46	=46	=46
4C	16c	4ee-	2.r
.	16B	.	.
.	16c	.	.
.	16d	.	.
8AA-	16e-	8cc	.
.	16f	.	.
4GG	16g	4b	.
.	16a-	.	.
.	16g	.	.
.	16f	.	.
8BB	16e-	8ff	.
.	16d	.	.
=47	=47	=47	=47
4.C	16c	16ee-	2r
.	16d	16ff	.
.	16e-	16gg	.
.	16d	16ff	.
.	16c	16ee-	.
.	16B-	16dd	.
16F	4A	16cc	.
16G	.	16b-	.
16F	.	16a	8r
16E-	.	16g	.
16D	[8f	16f	8eee-
16C	.	16a	.
=48	=48	=48	=48
8BB-	8f]	4b-	4ddd
8D	8d	.	.
8G	8g	8ee	8bb-
4F	4f	4ff	4aa
8r	8r	8ee-	8gg
=49	=49	=49	=49
2.r	2r	4dd	16ee
.	.	.	16ff
.	.	.	16gg
.	.	.	16ff
.	.	8b-	16ee-
.	.	.	16dd
.	.	4a	8cc
.	8r	.	8ff
.	8e-	8g-	8a
=50	=50	=50	=50
2r	4d	4f	8cc
.	.	.	8b-
.	8B-	8d-	8ee
.	4A	4c	8gg
8r	.	.	8ff
8E-	8c	8f	8aa
=51	=51	=51	=51
4D	4f	4B-	16bb-
.	.	.	16aa
.	.	.	16bb-
.	.	.	16ff
8BB-	8d	8f	8ddd
4AA	4c	4f	16eee-
.	.	.	16ddd
.	.	.	16eee-
.	.	.	16ff
8BB-	8d	8f	8ddd
=52	=52	=52	=52
4AA	4c	4f	16eee-
.	.	.	16ddd
.	.	.	16eee-
.	.	.	16ff
8BB-	8d	8f	16ddd
.	.	.	16ff
4AA	4c	4f	16eee-
.	.	.	16ddd
.	.	.	16eee-
.	.	.	16ff
8BB-	8d	8f	16ddd
.	.	.	16ff
=53	=53	=53	=53
4AA	4c	4f	16eee-
.	.	.	16ddd
.	.	.	16ccc
.	.	.	16ddd
8r	8r	8r	16ccc
.	.	.	16bb-
4AA	4e- 4c	4f	16ccc
.	.	.	16bb-
.	.	.	16aa
.	.	.	16bb-
8r	8r	8r	16aa
.	.	.	16gg
=54	=54	=54	=54
4AA	4e- 4c	4f	16aa
.	.	.	16gg
.	.	.	16ff
.	.	.	16gg
8r	8r	8r	16ff
.	.	.	16ee-
4AA	4e- 4c	4f	16ff
.	.	.	16ee-
.	.	.	16dd
.	.	.	16ee-
8r	8r	8r	16dd
.	.	.	16cc
=55	=55	=55	=55
4AA	4e- 4c	4f	16dd
.	.	.	16cc
.	.	.	16b-
.	.	.	16cc
8r	8r	8r	16b-
.	.	.	16a
4AA	4e- 4c	4f	16b-
.	.	.	16a
.	.	.	16g
.	.	.	16a
8r	8r	8r	16g
.	.	.	16f
=56	=56	=56	=56
4AA	4c 4e-	4f	16g
.	.	.	16f
.	.	.	16e
.	.	.	16g
2r	2r	2r	16f
.	.	.	16e
.	.	.	16g
.	.	.	16f
.	.	.	16e
.	.	.	16g
.	.	.	16f
.	.	.	16e
=57	=57	=57	=57
16G	16G	16g	16g
16F	16F	16f	16f
16E	16E	16e	16e
16G	16G	16g	16g
16F	16F	16f	16f
16E	16E	16e	16e
16G	16G	16g	16g
16F	16F	16f	16f
16E-	16E-	16e-	16e-
16G	16G	16g	16g
16F	16F	16f	16f
16E-	16E-	16e-	16e-
=58	=58	=58	=58
16D	16D	16d	16d
16E-	16E-	16e-	16e-
16F	16F	16f	16f
16G	16G	16g	16g
16A	16A	16a	16a
16B-	16B-	16b-	16b-
16D	16D	16d	16d
16E-	16E-	16e-	16e-
16F	16F	16f	16f
16G	16G	16g	16g
16A	16A	16a	16a
16B-	16B-	16b-	16b-
=59	=59	=59	=59
8E-	8E-	8e-	8e-
8G	8G	8g	8g
8B	8B	8b	8b
4c	8c	4cc	8cc
.	8d	.	8dd
8r	8e-	8r	8ee-
=60	=60	=60	=60
2.r	8e	2.r	8ee
.	8f	.	8ff
.	8g-	.	8gg-
.	8g	.	8gg
.	8a	.	8aa
.	8b-	.	8bb-
=61	=61	=61	=61
4F	4f	4dd	4ff
2r	8e	8cc#	8ee
.	8e-	8cc	8ee-
.	8c	8a	8cc
.	8A	8e-	8a
=62	=62	=62	=62
[2.BB-	4B-	4d	4b-
.	8a-	4dd	4ff
.	4g	.	.
.	.	8ee-	8gg
.	8e-	[8a	[8cc
=63	=63	=63	=63
2.BB-_	4d	8a]	8cc]
.	.	8b-	8dd
.	8a-	4dd	4ff
.	4g	.	.
.	.	8ee-	8gg
.	8e-	[8a	[8cc
=64	=64	=64	=64
4BB-]	4d	8a]	8cc]
.	.	8b-	8dd
8B-	4.r	4a	4cc
4BB-	.	.	.
.	.	8b-	8dd
8r	8b-	[8cc	[8ee-
=65	=65	=65	=65
2.r	4B-	8cc]	8ee-]
.	.	8dd	8ff
.	8b-	4ee	4gg
.	4B-	.	.
.	.	8ff	8aa-
.	8b-	[8gg	[8bb-
=66	=66	=66	=66
2.r	4B-	8gg]	8bb-]
.	.	8aa-	8ccc
.	4.r	8gg	8bb-
.	.	8ff	8aa-
.	.	8ee-	8gg
.	8b-	[8dd	[8ff
=67	=67	=67	=67
2.r	4B-	8dd]	8ff]
.	.	8ee-	8gg
.	2r	8dd	8ff
.	.	8cc	8ee-
.	.	8b-	8dd
.	.	8a-	8cc
=68	=68	=68	=68
2.r	2.r	2.g	2.b-
=69	=69	=69	=69
2.r	2r	4.g-	4.a
.	.	4r	4r
.	8r	.	.
.	8D	8f	8a-
=70	=70	=70	=70
4EE-	8E-	8e-	4g
.	8G	8G 8e-	.
8r	8G	8e- 8G	8e-
4BB-	8r	8r	8d
.	8F	8d 8A-	8r
8r	8F	8A- 8d	8a-
=71	=71	=71	=71
4EE-	8r	8r	4g
.	8G	8G 8e-	.
8r	8G	8G 8e-	8e-
4BB-	8r	8r	8d
.	8F	8A- 8d	8r
8r	8F	8A- 8d	8b-
=72	=72	=72	=72
8r	8r	8r	8ee-
8c	8c	8e-	8a-
8B-	8B-	8d	8g
8r	8r	8r	8cc
8A-	8A-	8c	8f
8G	8G	8B-	8e-
=73	=73	=73	=73
8F	8F	8A-	8d
8D	8B-	8f	8a-
8E-	8B-	8e-	8g
4BB-	8B-	8d	8f
.	4r	8r	16r
.	.	.	16b-
8r	.	8a-	16cc
.	.	.	16dd
=74	=74	=74	=74
2.r	2.r	4g	16ee-
.	.	.	16dd
.	.	.	16ee-
.	.	.	16ff
.	.	8e-	16gg
.	.	.	16aa-
.	.	4d	16bb-
.	.	.	16ccc
.	.	.	16bb-
.	.	.	16aa-
.	.	8a-	16gg
.	.	.	16ff
=75	=75	=75	=75
4.r	4.e-	[2g	16ee-
.	.	.	16dd
.	.	.	16ee-
.	.	.	16ff
.	.	.	16gg
.	.	.	16aa-
4.E-	4.d-	.	16bb-
.	.	.	16ccc
.	.	16g]	16ddd-
.	.	16e-	16bb-
.	.	16f	16gg
.	.	16g	16ee-
=76	=76	=76	=76
4AA-	4c	16a-	4ccc
.	.	16g	.
.	.	16a-	.
.	.	16b-	.
2r	8A-	16cc	2r
.	.	16dd-	.
.	4G	16ee-	.
.	.	16ff	.
.	.	16ee-	.
.	.	16dd-	.
.	8d-	16cc	.
.	.	16b-	.
=77	=77	=77	=77
4.A-	2.c	16a-	2.r
.	.	16g	.
.	.	16a-	.
.	.	16b-	.
.	.	16cc	.
.	.	16dd-	.
4.G-	.	16ee-	.
.	.	16ff	.
.	.	16ee-	.
.	.	16dd-	.
.	.	16cc	.
.	.	16b-	.
=78	=78	=78	=78
4.F	[4.c [4.e-	16a	2r
.	.	16b-	.
.	.	16cc	.
.	.	16b-	.
.	.	16a	.
.	.	16g-	.
4AA	4.c] 4.e-]	16f	.
.	.	16g-	.
.	.	16f	16r
.	.	16e-	16f
8F	.	16d-	16g
.	.	16c	16a
=79	=79	=79	=79
4BB-	4.d-	4.B-	16b-
.	.	.	16a
.	.	.	16b-
.	.	.	16cc
2r	.	.	16dd-
.	.	.	16ee-
.	4.c	4.A-	16ff
.	.	.	16gg-
.	.	.	16ff
.	.	.	16ee-
.	.	.	16dd-
.	.	.	16cc
=80	=80	=80	=80
2r	[2d	4.G	16b
.	.	.	16cc
.	.	.	16dd
.	.	.	16cc
.	.	.	16b
.	.	.	16a-
.	.	4B	16g
.	.	.	16a-
16r	8d]	.	16g
16GG	.	.	16f
16AA	8f	8g	16e-
16BB	.	.	16d
=81	=81	=81	=81
16C	4e-	4g	4e-
16BB	.	.	.
16C	.	.	.
16D	.	.	.
16E-	2r	8e-	8cc
16F	.	.	.
16G	.	4d	4b
16A-	.	.	.
16G	.	.	.
16F	.	.	.
16E-	.	8b	8ff
16D	.	.	.
=82	=82	=82	=82
16C	2r	4cc	4ee-
16BB	.	.	.
16C	.	.	.
16D	.	.	.
16E-	.	8e-	8cc
16F	.	.	.
8G	.	4d	4b
8GG	8r	.	.
8GG	8c	8e-	8a-
=83	=83	=83	=83
[2.GG	4B	4d	4g
.	8F#	8c	8e-
.	4G	4B	4d
.	8c	8e-	8a-
=84	=84	=84	=84
2.GG_	4B	4d	4g
.	8F#	8c	8e-
.	4G	4B	4d
.	8c	8e-	8a-
=85	=85	=85	=85
2.GG_	4B	4d	4g
.	8c	8e-	8a-
.	4B	4d	4g
.	8c	8e-	8a-
=86	=86	=86	=86
4.GG]	4B	4d	4g
.	8c	8e-	8a-
4.r	4B	4d	4g
.	8c	8e-	8a-
=87	=87	=87	=87
2.r	4B	4d	4g
.	8c	8e-	8a-
.	4B	4d	4g
.	8c	8e-	8a-
=88	=88	=88	=88
2.r	4B	4d	4g
.	8c	8e-	8a-
.	4B	4d	4g
.	8D	8f	8a-
=89	=89	=89	=89
4EE-	8E-	8e-	4g
.	8G	8G 8e-	.
8r	8G	8e- 8G	8e-
4BB-	8r	8r	8d
.	8F	8d 8A-	8r
8r	8F	8A- 8d	8a-
=90	=90	=90	=90
4EE-	8r	8r	4g
.	8G	8e- 8G	.
8r	8G	8e- 8G	8e-
4BB-	8r	8r	8d
.	8F	8d 8A-	8r
8r	8F	8A- 8d	8b-
=91	=91	=91	=91
8r	8r	8r	8ee-
8c	8c	8e-	8a-
8B-	8B-	8d	8g
8r	8r	8r	8cc
8A-	8A-	8c	8f
8G	8G	8B-	8e-
=92	=92	=92	=92
8F	8F	8A-	8d
8D	8B-	8f	8a-
8E-	8B-	8e-	8g
8BB-	8B-	8d	8f
8r	8r	8r	8r
8DD	8B-	8f	8a-
=93	=93	=93	=93
8EE-	4B-	4e-	4g
8GG	.	.	.
8C	8E-	8A	8e-
8BB-	8F	8B-	8d
8r	8r	8r	8r
8DD	8B-	8f	8a-
=94	=94	=94	=94
8EE-	4B-	4e-	4g
8GG	.	.	.
8C	8E-	8A	8e-
8BB-	8F	8B-	8d
8r	4r	8r	8r
[8B-	.	8d	8b-
=95	=95	=95	=95
8B-]	4r	4e-	4cc
8A	.	.	.
4A-	8B-	8f	8dd
.	4e-	4.B-	4ee-
8G	.	.	.
8F	8f	.	8dd
=96	=96	=96	=96
8E-	8g	8c	8cc
8F	8f	8d	8b-
8F	8c	8e-	8a
4BB-	4d	4d	4b-
8d	8f	8b-	8bb-
=97	=97	=97	=97
2e-	2g-	8cc-	8ccc-
.	.	8b-	8bb-
.	.	8a	8aa
.	.	4b-	4bb-
8d	8f	.	.
8B	8d	8g	8gg
=98	=98	=98	=98
2c	2e-	8a-	8aa-
.	.	8g	8gg
.	.	8f#	8ff#
.	.	4g	4gg
8B	8d	.	.
8G	8B	8f	8ff
=99	=99	=99	=99
8A-	8c	4.e-	2ee-
8B-	8d-	.	.
8A-	8c	.	.
4.G	4.B-	4.d-	.
.	.	.	8ff
.	.	.	8ee-
=100	=100	=100	=100
8A-	8A-	8c	4.ee-
8B-	8B-	8d-	.
8A-	8A-	8c	.
8G	4.B-	4.d-	4.ee
8A-	.	.	.
8G	.	.	.
=101	=101	=101	=101
8A-	8A-	8c	8ff
8F	8f	8a-	8aa-
8E	8e	8g	8gg
8G	8g	8b-	8bb-
8F	8f	8a-	8aa-
8A-	8a-	8cc	8ccc
=102	=102	=102	=102
4.B-	4g	8b-	4.ee-
.	.	8cc	.
.	8g-	8a	.
8BB-	4f	4b-	4dd
8B-	.	.	.
8B-	8d	8f	8b-
=103	=103	=103	=103
[2B-	4.e-	4.g-	8cc-
.	.	.	8b-
.	.	.	8a
.	4d	4f	4b-
8B-]	.	.	.
8BB-	8B-	8B-	8B-
=104	=104	=104	=104
8C-	8c-	8c-	8c-
8BB-	8B-	8B-	8B-
8AA	8A	8A	8A
8BB-	4B-	4B-	4B-
8B-	.	.	.
8B-	8d	8f	8b-
=105	=105	=105	=105
[2B-	4.e-	4.g-	8cc-
.	.	.	8ee-
.	.	.	8a
.	4d	4f	4b-
8B-]	.	.	.
8F	8f	8f	8f
=106	=106	=106	=106
8G-	8g-	8g-	8g-
8E-	8e-	8e-	8e-
8AA	8A	8A	8A
4BB-	4B-	4B-	4B-
8r	8a-	8r	[8b-
=107	=107	=107	=107
2.r	4g	2.r	8b-]
.	.	.	8ee-
.	8e-	.	4gg
.	8d	.	.
.	8r	.	8ff
.	8a-	.	[8b-
=108	=108	=108	=108
2.r	4g	2.r	8b-]
.	.	.	8ee-
.	8e-	.	4gg
.	4d	.	.
.	.	.	8ff
.	8cc	.	[8aa-
=109	=109	=109	=109
2.r	4b-	2r	8aa-]
.	.	.	8gg
.	8a-	.	4ccc
.	4g	.	.
.	.	8r	8bb-
.	8a-	[8ff	[8aa-
=110	=110	=110	=110
2r	4b-	8ff]	8aa-]
.	.	8ee-	8gg
.	8B-	4dd	4ff
.	4e-	.	.
8r	.	8ee-	8gg
8AA-	8A-	8B-	[8b-
=111	=111	=111	=111
4GG	4G	8B-	8b-]
.	.	8e-	8ee-
8EE-	8E-	4g	4gg
8DD	8D	.	.
8r	8r	8f	8ff
8AA-	8A-	[8B-	[8b-
=112	=112	=112	=112
4GG	4G	8B-]	8b-]
.	.	8e-	8ee-
8EE-	8E-	4g	4gg
4DD	4D	.	.
.	.	8f	8ff
8C	8c	[8a-	[8aa-
=113	=113	=113	=113
4BB-	4B-	8a-]	8aa-]
.	.	8g	8gg
8AA-	8A-	4cc	4ccc
4GG	4G	.	.
.	.	8b-	8bb-
8g	8b-	[8ee-	[8eee-
=114	=114	=114	=114
4f	4a-	8ee-]	8eee-]
.	.	8dd	8ddd
8e-	8g	4cc	4ccc
4d	4f	.	.
.	.	8b-	8bb-
8c	8e-	8a	8aa
=115	=115	=115	=115
4.d	4.f	4b-	4bb-
.	.	8b	8bb
4.r	4.r	4cc	4ccc
.	.	8r	8r
=116	=116	=116	=116
2.r	2.r	2r	2r
.	.	8r	8r
.	.	8g	8gg
=117	=117	=117	=117
2.r	2.r	4a-	4aa-
.	.	8a	8aa
.	.	4b-	4bb-
.	.	8r	8r
=118	=118	=118	=118
2r	2r	2r	2r
8r	8r	8r	8r
8c-	8d-	8f	8ff
=119	=119	=119	=119
4B-	4d-	4g-	4gg-
8c-	8d-	8a-	8ff
4B-	4d-	4g-	4gg-
8d-	8e-	8g	8gg
=120	=120	=120	=120
4c	4e-	4a-	4aa-
8d-	8e-	8b-	8gg
4c	4e-	4a-	4aa-
8e-	8f	8a	8aa
=121	=121	=121	=121
4d	4f	4b-	4bb-
8e-	8f	8a	8aa
4d	4f	4b-	4bb-
8d	8f	8b	8bb
=122	=122	=122	=122
8d	8f 8A-	8cc	8ccc
8d	8f 8A-	8dd	8ddd
8d	8A- 8f	8ee-	8eee-
8d	8A- 8f	8ee	8eee
8d	8f 8A-	8ff	8fff
8d	8f 8A-	8ee-	8eee-
=123	=123	=123	=123
[2.d	[2.f [2.A-	8dd	8ddd
.	.	8cc	8ccc
.	.	8b-	8bb-
.	.	4b-	4bb-
.	.	8cc-	8ccc-
=124	=124	=124	=124
2.d_	2.f_ 2.A-_	4b-	4bb-
.	.	8cc-	8ccc-
.	.	4b-	4bb-
.	.	8cc-	8ccc-
=125	=125	=125	=125
4.d]	4.f] 4.A-]	4.b-	4.bb-
4r	4.r	4.r	4.r
8AA-	.	.	.
=126	=126	=126	=126
4GG	2r	2.r	2.r
8EE-	.	.	.
8DD	.	.	.
8r	8r	.	.
8D	8A-	.	.
=127	=127	=127	=127
8E-	4G	2r	2.r
8GG	.	.	.
8AA	8E-	.	.
[4.BB-	8D	.	.
.	8r	8r	.
.	8d	8a-	.
=128	=128	=128	=128
2.BB-_	8e-	4g	2r
.	8G	.	.
.	8A	8e-	.
.	4B-	8d	.
.	.	8r	8r
.	[8B-	8dd	8aa-
=129	=129	=129	=129
2.BB-_	8B-]	4ee-	4gg-
.	8e-	.	.
.	4g-	8a	8ee-
.	.	8b-	8dd
.	8f	8r	8r
.	[8B-	8dd	8aa-
=130	=130	=130	=130
2.BB-_	8B-]	4ee-	4gg-
.	8e-	.	.
.	4g-	8a	8ee-
.	.	4.b-	4dd
.	8f	.	.
.	[8e	.	8dd-
=131	=131	=131	=131
2.BB-]	8e]	4a	4cc
.	8f	.	.
.	4d	8a-	8cc-
.	.	4g	4b-
.	8e-	.	.
.	8c	8g-	8a
=132	=132	=132	=132
2.BB-	2.d	2.f	16a-
.	.	.	16f
.	.	.	16g
.	.	.	16a-
.	.	.	16b-
.	.	.	16cc
.	.	.	16dd
.	.	.	16ee-
.	.	.	16ff
.	.	.	16gg
.	.	.	16aa-
.	.	.	16bb-
=133	=133	=133	=133
4BB-	4d	4A- 4f	16ccc
.	.	.	16bb-
.	.	.	16aa-
.	.	.	16bb-
8r	8r	8r	16aa-
.	.	.	16gg
4BB-	4d	4A- 4f	16aa-
.	.	.	16gg
.	.	.	16ff
.	.	.	16gg
8r	8r	8r	16ff
.	.	.	16ee-
=134	=134	=134	=134
4BB-	4d	4f 4A-	16ff
.	.	.	16ee-
.	.	.	16dd
.	.	.	16ee-
8r	8r	8r	16dd
.	.	.	16cc
4BB-	4d	4f 4A-	16dd
.	.	.	16cc
.	.	.	16b-
.	.	.	16cc
8r	8r	8r	16b-
.	.	.	16a-
=135	=135	=135	=135
4E-	4e-	4B- 4e-	16g
.	.	.	16a-
.	.	.	16b-
.	.	.	16cc
8r	8r	8r	16dd
.	.	.	16ee-
4AA-	4A-	4c 4e-	16cc
.	.	.	16dd
.	.	.	16ee-
.	.	.	16ff
8r	8r	8r	16gg
.	.	.	16aa-
=136	=136	=136	=136
4BB-	4B-	4e-	16gg
.	.	.	16aa-
.	.	.	16aa
.	.	.	16bb-
8r	8r	8r	16gg
.	.	.	16ee-
4BB-	4f	4d	16ee
.	.	.	16ff
.	.	.	16gg
.	.	.	16aa-
8r	8r	8a-	16ff
.	.	.	16dd
=137	=137	=137	=137
[2.E-	4e-	4g	16ee-
.	.	.	16dd
.	.	.	16ee-
.	.	.	16ff
.	8g	8dd-	16gg
.	.	.	16aa-
.	4a-	4cc	16bb-
.	.	.	16ccc
.	.	.	16bb-
.	.	.	16aa-
.	8dd	8a-	16gg
.	.	.	16ff
=138	=138	=138	=138
2.E-_	4ee-	4g	16ee-
.	.	.	16dd
.	.	.	16ee-
.	.	.	16ff
.	8g	8dd-	16gg
.	.	.	16aa-
.	4a-	4cc	16bb-
.	.	.	16ccc
.	.	.	16bb-
.	.	.	16aa-
.	8dd	8a-	16gg
.	.	.	16ff
=139	=139	=139	=139
4E-]	4ee-	4g	16ee-
.	.	.	16gg
.	.	.	16ff
.	.	.	16ee-
8r	8r	8r	16dd
.	.	.	16cc
4E-	4e-	4g	16b-
.	.	.	16ee-
.	.	.	16dd
.	.	.	16cc
8r	8r	8r	16b-
.	.	.	16a-
=140	=140	=140	=140
16G	16g	16g	16g
16c	16cc	16cc	16cc
16B-	16b-	16b-	16b-
16A-	16a-	16a-	16a-
16G	16g	16g	16g
16F	16f	16f	16f
16E-	16e-	16e-	16e-
16D	16d	16d	16d
16E-	16e-	16e-	16e-
16BB-	16B-	16B-	16B-
16C	16c	16c	16c
16D	16d	16d	16d
=141	=141	=141	=141
16E-	16e-	16e-	16e-
16D	16d	16d	16d
16E-	16e-	16e-	16e-
16BB-	16B-	16B-	16B-
16C	16c	16c	16c
16D	16d	16d	16d
16E-	16e-	16e-	16e-
16G	16g	16g	16g
16B-	16b-	16b-	16b-
16A-	16a-	16a-	16a-
16G	16g	16g	16g
16F	16f	16f	16f
=142	=142	=142	=142
4E-	4e-	4e-	4e-
8r	8r	8r	8r
4EE-	4e- 4G	4b- 4gg	4gg 4b-
8r	8r	8r	8r
=143	=143	=143	=143
4EE-	4G 4e-	4e- 4G	4e- 4G
2r	2r	2r	2r
==	==	==	==
*-	*-	*-	*-
!!!RWG1: This file contains only pitch and duration data.
!!!RWG2: Transposing instruments are not transposed.
!!!RWG3: Spines may have incompatible meters.
!!!RWG4: Durations of rests and tied notes may be interpreted.
!!!RWG: Key is interpreted using the Humdrum key tool.
!!!GTL: 6 Quartetti ("Apponyi")
!!!AFT: stage1
!!!END: 1997/04/15
!!!KEY: 57575231
!!!EMD: Converted from MuseData to Humdrum Dec 16, 2000, by Andreas Kornstaedt using muse2kern.
!!!EMD: Manual editing by Craig Sapp, Nov 2001
